X:0848
M:C|
L:1/8
Q:1/2=72
K:G
g2 GB     d2d2|e>de>f  g2dg |bagf  e>def|d2d>d d4 :|
d>ed>e {g}fee2|fgfa {b}agg2 |abc'a bgdg |feag  gfed|
g2 G>B    d2d2|d>edc   Bde=f|edec' bagf |g2gg  g4 :|

